X:10
T:Flowers of Edinburgh
M:2/2
L:1/8
K:G
GE|"G"D2 DE G2 GA|BGBd cBAG|"D"FGEF DEFG|"C"AF dF E2 (3GFE)|
"G"D2 (3DEF) G2 GA|BGBd "C"efge|"G"dcBA "D"GFGA|"G"B2G2G2:|
|:(3GBd)|"G"g2 gf gbag|"D"f2 fe fagf|"C"edef gfed|"Em"B2 e2 egfe|
"G"dBGB d2 Bd|"C"edef g2 fe|"G"dc BA "D"GFGA|"G"B2 G2G2:||
